svgs/word_maker.svg

<svg width="192" height="192" viewBox="0 0 192 192" fill="none" xmlns="http://www.w3.org/2000/svg">
<path d="M170 70.9859H121.014M121.014 70.9859V28.2535C121.014 24.7998 123.814 22 127.268 22H163.746C165.405 22 166.996 22.6589 168.168 23.8316C169.341 25.0044 170 26.595 170 28.2535V114.761C170 118.214 167.2 121.014 163.746 121.014H121.014M121.014 70.9859H70.9859M121.014 70.9859V121.014M70.9859 70.9859H28.2535C24.7998 70.9859 22 73.7857 22 77.2394V114.761C22 118.214 24.7998 121.014 28.2535 121.014H70.9859M70.9859 70.9859V121.014M70.9859 121.014V163.746C70.9859 167.2 73.7857 170 77.2394 170H114.761C118.214 170 121.014 167.2 121.014 163.746V121.014M70.9859 121.014H121.014" stroke="black" stroke-width="12" stroke-linecap="round" stroke-linejoin="round"/>
</svg>

<svg xmlns="http://www.w3.org/2000/svg" width="192" height="192" fill="none" viewBox="0 0 192 192"><path stroke="#000" stroke-linecap="round" stroke-linejoin="round" stroke-width="12" d="M170 70.986h-48.986m0 0V28.254c0-3.454 2.8-6.254 6.254-6.254h36.478A6.25 6.25 0 0 1 170 28.253v86.508c0 3.453-2.8 6.253-6.254 6.253h-42.732m0-50.028H70.986m50.028 0v50.028M70.986 70.986H28.254A6.254 6.254 0 0 0 22 77.239v37.522c0 3.453 2.8 6.253 6.253 6.253h42.733m0-50.028v50.028m0 0v42.732c0 3.454 2.8 6.254 6.253 6.254h37.522c3.453 0 6.253-2.8 6.253-6.254v-42.732m-50.028 0h50.028"/></svg>
